X:1
T:Sinclair, 85.85 D
T:Sinclair, 85.85 D
T:George Frederick Root (1820-1895)
T:Public Domain Courtesy of the Cyber Hymnal™
C:George Frederick Root (1820-1895)
Z:Public Domain
Z:Courtesy of the Cyber Hymnal™
%%score ( 1 2 ) 3
L:1/8
Q:1/4=115
M:4/4
K:E
V:1 treble 
V:2 treble 
V:3 bass 
V:1
 [EG]3 [EG] [EG]2 [EG]2 | [EG]2 [EG]2 [EA]2 [EG]2 | [DF]3 [DF] [DG]2 [DF]2 | E8 | %4
 [EG]3 [EG] [EG]2 [EG]2 | [EG]2 [EG]2 [EA]2 [EG]2 | [DF]3 [DF] [EG]2 [E^A]2 | [DB]8 | %8
 [FA]3 [FA] [FA]2 [FA]2 | [FA]2 [EG]2 [EG]2 [DF]2 | [Ac]2 [GB]2 [FA]2 [EG]2 | [DF]8 | %12
 [EG]3 [EG] [EG]2 [EG]2 | [EG]2 [EG]2 [EA]2 [EG]2 | [DF]3 [DF] [DG]2 [DF]2 | E8 |] %16
V:2
 x8 | x8 | x8 | E8 | x8 | x8 | x8 | x8 | x8 | x8 | x8 | x8 | x8 | x8 | x8 | E8 |] %16
V:3
 [E,B,]3 [E,B,] [E,B,]2 [E,B,]2 | [E,B,]2 [E,B,]2 [E,C]2 [E,B,]2 | %2
 [B,,A,]3 [B,,A,] [B,,B,]2 [B,,A,]2 | [E,G,]8 | [E,B,]3 [E,B,] [E,B,]2 [E,B,]2 | %5
 [E,B,]2 [E,B,]2 [E,C]2 [E,B,]2 | [F,B,]3 [F,B,] [F,^A,]2 [F,C]2 | [B,,B,]8 | %8
 [B,,B,]3 [B,,B,] [B,,B,]2 [B,,B,]2 | [D,B,]2 [E,B,]2 [B,,B,]2 [B,,B,]2 | %10
 [B,,B,]2 [B,,B,]2 [D,B,]2 [E,B,]2 | [B,,B,]8 | [E,B,]3 [E,B,] [E,B,]2 [E,B,]2 | %13
 [E,B,]2 [E,B,]2 [E,C]2 [E,B,]2 | [B,,A,]3 [B,,A,] [B,,B,]2 [B,,A,]2 | [E,G,]8 |] %16

